X:155
%%pagewidth 8in
%%vocalfont Baskerville10Pro 13
T:Bobbing Joe, or Bobbing Joan
M:6/8
L:1/8
K:G
%%score 1 2
V:1 clef-treble
V:2 clef-bass octave=-1
V:1
E|E2B B2A|(B>c)d (F>E)D|E2F G2A&x3E3|BF2 E2E&^D3E2x|
w:I ne'er yet saw a love-*ly crea-*ture, Were she widow,* maid, or wife, But
V:2
[EG]|[EG]3-[EG]2[FA]|[Gd]2B d2z|C3C3|B,3E2[EG]|
V:1
E2B B2A|(B>c)d F>ED|E2F G2A&x3E3|BF2E2&^D3E2||
w:straight with-in my breast* her feature* Was paint-ed, strangely* to the life:
V:2
[EG]3-[EG]2[FA]|[Gd]2B d2z|C3C3|B,3E2||
V:1
F|FA2 D2D|FA2 D2D|E2F G2A&x3E3|BF2E2:||
w:If out of sight, Tho' ne'er so bright, I straight-way lost her pic-ture quite.
V:2
[DA]|(A3F2)F&D3-D2D|(A3F2)F&D3-D2D|[CG]3C3|B,3E2:||

